svg/pictographs/pictograph_Product-Categories_Ultrasonic-Cleaners.svg

<?xml version='1.0' encoding='utf-8'?>
<svg xmlns="http://www.w3.org/2000/svg" id="Layer_1" data-name="Layer 1" width="110" height="110" viewBox="0 0 110 110">
  <path d="M39.5,81.0001s.2149-.2774.6415-1.2133c.2853-.6261.5979-1.2372,1.0152-1.7959.406-.5435.8774-1.0196,1.5006-1.3382.1542-.0789.3084-.1628.4854-.1885.2516-.0484.5985-.1728.8276-.2784.4894-.2255.9316-.5203,1.3355-.8699.7969-.6898,1.3841-1.5195,1.8107-2.4554.2853-.6261.5979-1.2372,1.0152-1.7959.406-.5436.8774-1.0196,1.5006-1.3382.1542-.0789.4223-.1925.5993-.2182.2516-.0484.4866-.1451.7157-.2507.4894-.2255.9316-.5203,1.3355-.87.7968-.6897,1.3841-1.5194,1.8106-2.4553.2853-.6262.5979-1.2372,1.0153-1.7959.406-.5436.8773-1.0196,1.5005-1.3382.1543-.079.4203-.1905.5974-.2162.2515-.0484.4865-.1451.7157-.2507.4893-.2256.9316-.5203,1.3355-.87.7968-.6897,1.384-1.5195,1.8106-2.4553.2853-.6262.9316-2.0058,1.9316-2.5058M11,65.4761L65.4762,10.9999l33.5238,33.5237-54.4762,54.4763L11,65.4761ZM48.9698,95.1193l2.5592-2.5592,1.5843,1.5843-2.5592,2.5592-1.5843-1.5843ZM92.7211,51.3679l2.5593-2.5592,1.5843,1.5843-2.5592,2.5592-1.5844-1.5843Z" style="fill:none;stroke:currentColor;stroke-linecap:round;stroke-miterlimit:10;stroke-width:1.5" />
  <path d="M78.9863,64.5375c-1.3579-8.6056-5.2824-16.4132-11.7735-23.0479-5.7711-5.8988-13.3451-9.7237-20.7509-11.4753M64.7418,64.2114c0,10.2687-8.3245,18.5932-18.5932,18.5932s-18.5932-8.3245-18.5932-18.5932,8.3245-18.5932,18.5932-18.5932,18.5932,8.3245,18.5932,18.5932ZM11,65.4762L65.4762,11.0001l33.5238,33.5238-54.4762,54.4762L11,65.4762ZM62.7787,22.5691l.9004-.9004c1.0304-1.0303,2.7009-1.0303,3.7313,0l5.6722,5.6722c1.0303,1.0304,1.0303,2.7009,0,3.7312l-.9004.9005c-1.0304,1.0303-2.7009,1.0303-3.7312,0l-5.6723-5.6723c-1.0303-1.0303-1.0303-2.7008,0-3.7312ZM48.9698,95.1194l2.5592-2.5592,1.5843,1.5843-2.5592,2.5592-1.5843-1.5843ZM92.7212,51.3681l2.5592-2.5593,1.5843,1.5843-2.5592,2.5593-1.5843-1.5843Z" style="fill:none;stroke:currentColor;stroke-linecap:round;stroke-miterlimit:10;stroke-width:1.5" />
  <path d="M36.0755,65.6761c0-2.9328,1.1188-5.8656,3.3564-8.1032s5.1704-3.3564,8.1031-3.3564" style="fill:none;stroke:currentColor;stroke-linecap:round;stroke-miterlimit:10;stroke-width:1.5" />
  <path d="M38.8495,65.6761c0-2.2229.848-4.4457,2.544-6.1417s3.9188-2.544,6.1417-2.544" style="fill:none;stroke:currentColor;stroke-linecap:round;stroke-miterlimit:10;stroke-width:1.5" />
  <path d="M41.2625,65.6761c0-1.6053.6124-3.2106,1.8372-4.4354s2.8301-1.8372,4.4354-1.8372" style="fill:none;stroke:currentColor;stroke-linecap:round;stroke-miterlimit:10;stroke-width:1.5" />
  <path d="M43.7924,65.6761c0-.9578.3654-1.9157,1.0962-2.6465s1.6886-1.0962,2.6464-1.0962" style="fill:none;stroke:currentColor;stroke-linecap:round;stroke-miterlimit:10;stroke-width:1.5" />
</svg>

<?xml version='1.0' encoding='utf-8'?>
<svg xmlns="http://www.w3.org/2000/svg" width="110" height="110" viewBox="0 0 110 110" fill="none" stroke="currentColor" stroke-width="1.5">
<path d="M39.5 81C39.5 81 39.7149 80.7226 40.1415 79.7867C40.4268 79.1606 40.7394 78.5495 41.1567 77.9908C41.5627 77.4473 42.0341 76.9712 42.6573 76.6526C42.8115 76.5737 42.9657 76.4898 43.1427 76.4641C43.3943 76.4157 43.7412 76.2913 43.9703 76.1857C44.4597 75.9602 44.9019 75.6654 45.3058 75.3158C46.1027 74.626 46.6899 73.7963 47.1165 72.8604C47.4018 72.2343 47.7144 71.6232 48.1317 71.0645C48.5377 70.5209 49.0091 70.0449 49.6323 69.7263C49.7865 69.6474 50.0546 69.5338 50.2316 69.5081C50.4832 69.4597 50.7182 69.363 50.9473 69.2574C51.4367 69.0319 51.8789 68.7371 52.2828 68.3874C53.0796 67.6977 53.6669 66.868 54.0934 65.9321C54.3787 65.3059 54.6913 64.6949 55.1087 64.1362C55.5147 63.5926 55.986 63.1166 56.6092 62.798C56.7635 62.719 57.0295 62.6075 57.2066 62.5818C57.4581 62.5334 57.6931 62.4367 57.9223 62.3311C58.4116 62.1055 58.8539 61.8108 59.2578 61.4611C60.0546 60.7714 60.6418 59.9416 61.0684 59.0058C61.3537 58.3796 62 57 63 56.5M11 65.4761L65.4762 10.9999L99 44.5236L44.5238 98.9999L11 65.4761ZM48.9698 95.1192L51.529 92.56L53.1133 94.1443L50.5541 96.7035L48.9698 95.1192ZM92.7211 51.3678L95.2804 48.8086L96.8647 50.3929L94.3055 52.9521L92.7211 51.3678Z" stroke="currentColor" stroke-width="1.5" stroke-miterlimit="10" stroke-linecap="round" fill="none" />
<path d="M44.5346 67.0057C44.8275 67.2986 45.3024 67.2986 45.5953 67.0057C45.8882 66.7128 45.8882 66.238 45.5953 65.9451L44.5346 67.0057ZM47.945 63.5954C48.2378 63.8883 48.7127 63.8883 49.0056 63.5954C49.2985 63.3025 49.2985 62.8276 49.0056 62.5347L47.945 63.5954ZM40.5316 65.5145C40.5661 65.9273 40.9287 66.2339 41.3415 66.1993C41.7543 66.1648 42.0609 65.8022 42.0263 65.3894L40.5316 65.5145ZM42.9696 60.9697L43.4999 61.5L42.9696 60.9697ZM47.3893 60.0264C47.8021 60.061 48.1647 59.7543 48.1992 59.3416C48.2338 58.9288 47.9272 58.5662 47.5144 58.5317L47.3893 60.0264ZM47.8119 56.9146C48.225 56.9459 48.5852 56.6364 48.6165 56.2234C48.6478 55.8103 48.3383 55.4501 47.9253 55.4189L47.8119 56.9146ZM37.4188 65.9254C37.4501 66.3384 37.8102 66.6479 38.2233 66.6166C38.6363 66.5853 38.9458 66.2251 38.9145 65.812L37.4188 65.9254ZM38.6465 56.6467L39.1769 57.177L38.6465 56.6467ZM48.184 53.689C48.5973 53.7163 48.9546 53.4035 48.9819 52.9902C49.0093 52.5769 48.6965 52.2196 48.2831 52.1922L48.184 53.689ZM34.1921 66.2833C34.2195 66.6966 34.5767 67.0094 34.9901 66.9821C35.4034 66.9547 35.7162 66.5974 35.6888 66.1841L34.1921 66.2833ZM45.0649 66.4754L45.5953 65.9451C45.0469 65.3967 45.0281 64.3989 45.7134 63.7135L45.1831 63.1832L44.6528 62.6529C43.4546 63.851 43.33 65.8011 44.5346 67.0057L45.0649 66.4754ZM45.1831 63.1832L45.7134 63.7135C46.3988 63.0282 47.3966 63.047 47.945 63.5954L48.4753 63.065L49.0056 62.5347C47.801 61.3301 45.8509 61.4548 44.6528 62.6529L45.1831 63.1832ZM41.279 65.4519L42.0263 65.3894C41.9136 64.0423 42.4024 62.5975 43.4999 61.5L42.9696 60.9697L42.4392 60.4393C41.0321 61.8465 40.3818 63.7241 40.5316 65.5145L41.279 65.4519ZM42.9696 60.9697L43.4999 61.5C44.5974 60.4025 46.0422 59.9137 47.3893 60.0264L47.4519 59.279L47.5144 58.5317C45.724 58.3818 43.8464 59.0321 42.4392 60.4393L42.9696 60.9697ZM40.8454 58.8455L41.3758 59.3759C43.1854 57.5662 45.5699 56.7447 47.8119 56.9146L47.8686 56.1667L47.9253 55.4189C45.2441 55.2157 42.4318 56.1986 40.3151 58.3152L40.8454 58.8455ZM38.1666 65.8687L38.9145 65.812C38.7446 63.57 39.5661 61.1855 41.3758 59.3759L40.8454 58.8455L40.3151 58.3152C38.1985 60.4319 37.2156 63.2442 37.4188 65.9254L38.1666 65.8687ZM38.6465 56.6467L39.1769 57.177C41.7063 54.6476 45.0351 53.4804 48.184 53.689L48.2336 52.9406L48.2831 52.1922C44.7002 51.9549 40.9494 53.2831 38.1162 56.1163L38.6465 56.6467ZM34.9405 66.2337L35.6888 66.1841C35.4803 63.0352 36.6474 59.7064 39.1769 57.177L38.6465 56.6467L38.1162 56.1163C35.283 58.9496 33.9548 62.7003 34.1921 66.2833L34.9405 66.2337Z" fill="none" stroke="currentColor" stroke-width="1.5" />
<path d="M78.9863 64.5375C77.6284 55.9319 73.7039 48.1243 67.2128 41.4896C61.4417 35.5908 53.8677 31.7659 46.4619 30.0143M64.7418 64.2113C64.7418 74.48 56.4173 82.8045 46.1486 82.8045C35.8799 82.8045 27.5554 74.48 27.5554 64.2113C27.5554 53.9426 35.8799 45.6181 46.1486 45.6181C56.4173 45.6181 64.7418 53.9426 64.7418 64.2113ZM11 65.4762L65.4762 11L99 44.5238L44.5238 99L11 65.4762ZM62.7787 22.569L63.6791 21.6686C64.7095 20.6383 66.38 20.6383 67.4104 21.6686L73.0826 27.3408C74.1129 28.3712 74.1129 30.0417 73.0826 31.072L72.1822 31.9725C71.1518 33.0028 69.4813 33.0028 68.451 31.9725L62.7787 26.3002C61.7484 25.2699 61.7484 23.5994 62.7787 22.569ZM48.9698 95.1193L51.529 92.5601L53.1133 94.1444L50.5541 96.7036L48.9698 95.1193ZM92.7212 51.368L95.2804 48.8087L96.8647 50.393L94.3055 52.9523L92.7212 51.368Z" stroke="currentColor" stroke-width="1.5" stroke-miterlimit="10" stroke-linecap="round" fill="none" />
</svg>
